icons/icons8-twitter.svg

<?xml version="1.0" encoding="UTF-8"?>
<svg xmlns="http://www.w3.org/2000/svg" xmlns:xlink="http://www.w3.org/1999/xlink" width="48px" height="48px" viewBox="0 0 48 48" version="1.1">
<defs>
<linearGradient id="linear0" gradientUnits="userSpaceOnUse" x1="10.341" y1="8.312" x2="40.798" y2="38.769001" >
<stop offset="0" style="stop-color:rgb(16.470588%,64.313725%,95.686275%);stop-opacity:1;"/>
<stop offset="1" style="stop-color:rgb(0%,47.843137%,85.098039%);stop-opacity:1;"/>
</linearGradient>
</defs>
<g id="surface1">
<path style=" stroke:none;fill-rule:nonzero;fill:url(#linear0);" d="M 46.105469 11.019531 C 44.554688 11.707031 42.886719 12.164062 41.125 12.382812 C 42.914062 11.320312 44.292969 9.625 44.9375 7.625 C 43.265625 8.605469 41.410156 9.324219 39.4375 9.707031 C 37.859375 8.035156 35.613281 7 33.121094 7 C 28.339844 7 24.460938 10.84375 24.460938 15.582031 C 24.460938 16.253906 24.539062 16.90625 24.6875 17.539062 C 17.492188 17.179688 11.109375 13.757812 6.839844 8.566406 C 6.089844 9.835938 5.664062 11.320312 5.664062 12.886719 C 5.664062 15.867188 7.191406 18.488281 9.515625 20.035156 C 8.097656 19.992188 6.761719 19.597656 5.589844 18.964844 C 5.589844 18.988281 5.589844 19.027344 5.589844 19.0625 C 5.589844 23.226562 8.578125 26.695312 12.535156 27.484375 C 11.8125 27.679688 11.046875 27.789062 10.257812 27.789062 C 9.699219 27.789062 9.15625 27.726562 8.628906 27.632812 C 9.730469 31.035156 12.925781 33.523438 16.714844 33.597656 C 13.75 35.894531 10.015625 37.269531 5.957031 37.269531 C 5.257812 37.269531 4.570312 37.230469 3.894531 37.148438 C 7.730469 39.578125 12.28125 41 17.171875 41 C 33.097656 41 41.8125 27.921875 41.8125 16.574219 C 41.8125 16.203125 41.800781 15.832031 41.78125 15.464844 C 43.484375 14.265625 44.949219 12.75 46.105469 11.019531 "/>
</g>
</svg>

<svg xmlns="http://www.w3.org/2000/svg"  viewBox="0 0 48 48" width="48px" height="48px"><linearGradient id="_osn9zIN2f6RhTsY8WhY4a" x1="10.341" x2="40.798" y1="8.312" y2="38.769" gradientUnits="userSpaceOnUse"><stop offset="0" stop-color="#2aa4f4"/><stop offset="1" stop-color="#007ad9"/></linearGradient><path fill="url(#_osn9zIN2f6RhTsY8WhY4a)" d="M46.105,11.02c-1.551,0.687-3.219,1.145-4.979,1.362c1.789-1.062,3.166-2.756,3.812-4.758	c-1.674,0.981-3.529,1.702-5.502,2.082C37.86,8.036,35.612,7,33.122,7c-4.783,0-8.661,3.843-8.661,8.582	c0,0.671,0.079,1.324,0.226,1.958c-7.196-0.361-13.579-3.782-17.849-8.974c-0.75,1.269-1.172,2.754-1.172,4.322	c0,2.979,1.525,5.602,3.851,7.147c-1.42-0.043-2.756-0.438-3.926-1.072c0,0.026,0,0.064,0,0.101c0,4.163,2.986,7.63,6.944,8.419	c-0.723,0.198-1.488,0.308-2.276,0.308c-0.559,0-1.104-0.063-1.632-0.158c1.102,3.402,4.299,5.889,8.087,5.963	c-2.964,2.298-6.697,3.674-10.756,3.674c-0.701,0-1.387-0.04-2.065-0.122C7.73,39.577,12.283,41,17.171,41	c15.927,0,24.641-13.079,24.641-24.426c0-0.372-0.012-0.742-0.029-1.108C43.483,14.265,44.948,12.751,46.105,11.02"/></svg>
